X:1
T:Title
%%score { ( 1 3 ) | 2 }
L:1/8
Q:1/4=108
M:4/4
K:Bb
V:1 treble nm="Grand Piano"
V:3 treble 
V:2 bass 
V:1
 [DF]>[DF] [DF][DF] [EG] [DF]3 | [B,D][DF][DB][Dc] [DB]4 | GGGG [=Ec][Ec][Ec][EB] | A2 B2 c4 | %4
w: Haldor~Lillenas * * * * *||||
 [Fd][Fd][Fd][Fd] [Fd] [FB]3 | [Gc][GB][FA][EG] [DF]4 | GBAG FGAB | d2 c2 [DB]4 | %8
w: ||||
 [Fd]>[Fd] [Fd][Fd] [Fd] [DB]3 | [EG][GB][FA][EG] [DF]4 | [Fd]>[Fd] [Fd][Fd] [Fd] [FB]3 | %11
w: |||
 z4 c4[K:bass] | [Fd]>[Fd] [Fd][Fd] [Fd] [FB]3 | [Gc][GB][FA][EG] [DF]4 | GBAG FGAB | %15
w: ||||
[M:8/4] d2 c2 [DB]4 z8 |] %16
w: |
V:2
 [B,,B,]>[B,,B,] [B,,B,][B,,B,] [B,,B,] [B,,B,]3 | [B,,F,][B,,F,][B,,F,][B,,F,] [B,,B,]4 | %2
 [E,B,E][E,B,E][E,B,E][E,B,E] [C,B,][C,B,][C,G,][C,C] | [F,CF]2 [G,C=E]2 [F,A,_E]4 | %4
 [B,,B,][B,,B,][B,,B,][B,,B,] [B,,B,] [D,B,]3 | [E,B,][E,B,][E,B,][E,B,] [B,,B,]4 | %6
 [E,B,E][E,G,E][=E,A,_D][E,B,D] [F,B,=D][F,B,D][G,C=E][G,CE] | [F,A,F]2 [F,A,E]2 [B,,B,]4 | %8
 [B,,B,]>[B,,B,] [B,,B,][B,,B,] [B,,B,] [B,,B,]3 | [E,B,][E,B,][E,B,][E,B,] [B,,B,]4 | %10
 [B,,B,]>[B,,B,] [B,,B,][B,,B,] [B,,B,] [D,B,]3 | [C,B,][C,B,][C,B,][C,B,] [F,A,E]4 | %12
 [B,,B,]>[B,,B,] [B,,B,][B,,B,] [B,,B,] [D,B,]3 | [E,B,][E,B,][E,B,][E,B,] [B,,B,]4 | %14
 [E,B,E][E,G,E][=E,A,_D][E,B,D] [F,B,=D][F,B,D][G,C=E][G,CE] | %15
[M:8/4] [F,A,F]2 [F,A,E]2 [B,,B,]4 z8 |] %16
V:3
 x8 | x8 | x8 | x8 | x8 | x8 | x8 | x8 | x8 | x8 | x8 | [=EG][Ec][Ec][Ed] z[K:bass] E,D,C, | x8 | %13
 x8 | x8 |[M:8/4] x16 |] %16

